packages/components/src/components/icon/rebranding/ic-rebranding-derivx-dashboard.svg

<svg width="48" height="48" viewBox="0 0 48 48" fill="none" xmlns="http://www.w3.org/2000/svg"><g clip-path="url(#clip0_34833_147623)"><path d="M8.99987 0C4.02938 0 0 4.02938 0 8.99987V9.26136L44.8711 2.17899C43.295 0.821009 41.2431 0 38.9995 0H8.99987Z" fill="#E12E3A"/><path d="M45.7973 3.10158L37.566 47.9993H38.9995C43.97 47.9993 47.9993 43.97 47.9993 38.9995V8.99987C47.9993 6.74356 47.169 4.68116 45.7973 3.10158Z" fill="#E12E3A"/><path fill-rule="evenodd" clip-rule="evenodd" d="M37.566 47.9993L8.99987 48C4.02938 48 0 43.9706 0 39.0001V9.26136L44.8711 2.17899C45.2016 2.46378 45.5112 2.77218 45.7973 3.10158L37.566 47.9993Z" fill="#FF444F"/><path d="M14.3164 28.599C14.4704 28.613 14.6454 28.627 14.8414 28.641C15.0514 28.641 15.2964 28.641 15.5764 28.641C17.2144 28.641 18.4254 28.228 19.2094 27.402C20.0074 26.576 20.4064 25.435 20.4064 23.979C20.4064 22.453 20.0284 21.298 19.2724 20.514C18.5164 19.73 17.3194 19.338 15.6814 19.338C15.4574 19.338 15.2264 19.345 14.9884 19.359C14.7504 19.359 14.5264 19.373 14.3164 19.401V28.599ZM23.7874 23.979C23.7874 25.239 23.5914 26.338 23.1994 27.276C22.8074 28.214 22.2474 28.991 21.5194 29.607C20.8054 30.223 19.9304 30.685 18.8944 30.993C17.8584 31.301 16.6964 31.455 15.4084 31.455C14.8204 31.455 14.1344 31.427 13.3504 31.371C12.5664 31.329 11.7964 31.231 11.0404 31.077V16.902C11.7964 16.762 12.5804 16.671 13.3924 16.629C14.2184 16.573 14.9254 16.545 15.5134 16.545C16.7594 16.545 17.8864 16.685 18.8944 16.965C19.9164 17.245 20.7914 17.686 21.5194 18.288C22.2474 18.89 22.8074 19.66 23.1994 20.598C23.5914 21.536 23.7874 22.663 23.7874 23.979Z" fill="white"/><path d="M33.032 31.266C32.626 30.454 32.178 29.635 31.688 28.809C31.212 27.969 30.659 27.115 30.029 26.247C29.833 26.499 29.581 26.849 29.273 27.297C28.979 27.745 28.678 28.221 28.37 28.725C28.076 29.229 27.796 29.712 27.53 30.174C27.264 30.636 27.068 31 26.942 31.266H23.204C23.82 30.132 24.534 28.942 25.346 27.696C26.172 26.45 27.089 25.127 28.097 23.727L23.414 16.713H27.383L30.218 21.249L32.99 16.713H36.728L32.108 23.769C33.284 25.295 34.271 26.709 35.069 28.011C35.867 29.299 36.497 30.384 36.959 31.266H33.032Z" fill="white"/></g><defs><clipPath id="clip0_34833_147623"><rect width="48" height="48" fill="white"/></clipPath></defs></svg>

<svg xmlns="http://www.w3.org/2000/svg" width="48" height="48" fill="none"><g clip-path="url(#a)"><path fill="#E12E3A" d="M9 0a9 9 0 0 0-9 9v.261L44.871 2.18A8.965 8.965 0 0 0 39 0H9ZM45.797 3.102l-8.231 44.897h1.433a9 9 0 0 0 9-9V9c0-2.255-.83-4.318-2.202-5.897Z"/><path fill="#FF444F" fill-rule="evenodd" d="M37.566 48H9a9 9 0 0 1-9-9V9.261L44.871 2.18c.33.285.64.593.926.923l-8.231 44.897Z" clip-rule="evenodd"/><path fill="#fff" d="M14.316 28.599c.154.014.33.028.525.042h.735c1.638 0 2.85-.413 3.633-1.239.798-.826 1.197-1.967 1.197-3.423 0-1.526-.378-2.681-1.134-3.465-.756-.784-1.953-1.176-3.59-1.176-.225 0-.456.007-.694.021a5.09 5.09 0 0 0-.672.042v9.198Zm9.471-4.62c0 1.26-.196 2.359-.588 3.297-.392.938-.952 1.715-1.68 2.331-.714.616-1.589 1.078-2.625 1.386-1.036.308-2.198.462-3.486.462-.588 0-1.274-.028-2.058-.084a15.788 15.788 0 0 1-2.31-.294V16.902a18.02 18.02 0 0 1 2.352-.273 32.05 32.05 0 0 1 2.121-.084c1.246 0 2.373.14 3.381.42 1.022.28 1.897.721 2.625 1.323s1.288 1.372 1.68 2.31c.392.938.588 2.065.588 3.381Z"/><path fill="#fff" d="M33.032 31.266a39.04 39.04 0 0 0-1.344-2.457 27.232 27.232 0 0 0-1.659-2.562c-.196.252-.448.602-.756 1.05-.294.448-.595.924-.903 1.428-.294.504-.574.987-.84 1.449-.266.462-.462.826-.588 1.092h-3.738a52.268 52.268 0 0 1 2.142-3.57 125.528 125.528 0 0 1 2.751-3.969l-4.683-7.014h3.969l2.835 4.536 2.772-4.536h3.738l-4.62 7.056c1.176 1.526 2.163 2.94 2.961 4.242.798 1.288 1.428 2.373 1.89 3.255h-3.927Z"/></g><defs><clipPath id="a"><path fill="#fff" d="M0 0h48v48H0z"/></clipPath></defs></svg>
